static/images/mobile/copyright/wikipedia-wordmark-tt.svg

<?xml version="1.0" encoding="UTF-8"?>
<svg width="120px" height="19px" viewBox="0 0 120 19" version="1.1" xmlns="http://www.w3.org/2000/svg" xmlns:xlink="http://www.w3.org/1999/xlink">
    <title>tt-wordmark</title>
    <g id="Page-1" stroke="none" stroke-width="1" fill="none" fill-rule="evenodd">
        <path d="M6.49115121,0.000930430906 C11.1628448,0.000930430906 11.8913722,2.18744306 11.8913722,3.86780128 C11.8913722,5.23274341 10.7636899,6.52139022 9.50574735,7.15873539 L9.50574735,7.20804823 C11.69226,7.83701952 13.3735486,9.21777898 13.3735486,11.6294559 C13.3735486,13.7880556 12.042102,16.3011495 7.0447576,16.3011495 C4.80893214,16.3011495 4.45815969,16.2499758 3.3779294,16.2499758 C2.09765648,16.2499758 1.34400744,16.2750974 0.113047355,16.3011495 C-0.0376824517,16.1504197 -0.0376824517,15.6219349 0.113047355,15.4702747 C1.8724922,15.3958402 2.29862955,15.270232 2.29862955,13.1860668 L2.29862955,3.11508267 C2.29862955,1.03091744 1.8724922,0.905309271 0.113047355,0.830874799 C-0.0376824517,0.680144992 -0.0376824517,0.151660238 0.113047355,0 C1.37005951,0.0251216345 2.09672605,0.0511736998 3.35280777,0.0511736998 C4.43210762,0.0521041307 5.61189401,0.000930430906 6.49115121,0.000930430906 Z M4.43210762,7.05917928 L6.29110857,7.05917928 C8.37434337,7.05917928 9.85745023,6.30459982 9.85745023,4.17112175 C9.85745023,1.60871504 8.02264049,0.855066002 6.61768982,0.855066002 C4.43210762,0.855066002 4.43210762,1.10721278 4.43210762,1.93622671 L4.43210762,7.05917928 Z M4.43210762,13.7880556 C4.43210762,14.6170695 4.75868887,15.4712051 6.51627285,15.4712051 C10.3347613,15.4712051 11.0363062,13.9406463 11.0363062,12.1058365 C11.0363062,9.84675028 9.60437303,7.91145399 6.16456997,7.91145399 L4.43210762,7.91145399 L4.43210762,13.7880556 Z M27.312334,15.6982302 C27.4249162,15.8033689 27.4249162,16.1801935 27.312334,16.2853321 C26.3688771,16.2685844 25.8227141,16.2509062 24.8820485,16.2509062 C23.9209134,16.2509062 23.3561418,16.2695148 22.4331544,16.2853321 C22.3196418,16.1801935 22.3196418,15.8033689 22.4331544,15.6982302 C23.7515749,15.6433348 24.0725736,15.5549439 24.0725736,14.0755587 L24.0725736,7.72629824 C23.9320785,7.77188936 23.8353137,7.85376728 23.7432011,7.95890597 L18.5979182,14.0234546 C18.377406,14.2886274 18.189459,14.4319138 18.0591987,14.8561903 C18.1941111,15.5921611 18.6128051,15.6572913 19.6455834,15.6991607 C19.7590959,15.8061602 19.7590959,16.1829847 19.6455834,16.2881234 C18.7030569,16.2695148 18.1568939,16.2518366 17.2152978,16.2518366 C16.2550931,16.2518366 15.6893911,16.2713757 14.7664037,16.2881234 C14.6538216,16.1829847 14.6538216,15.8061602 14.7664037,15.6991607 C16.0848243,15.6461261 16.4058229,15.5577352 16.4058229,14.0764892 L16.4058229,6.92519723 C16.4058229,5.44581209 16.0857547,5.35462986 14.7664037,5.30252573 C14.6538216,5.19552618 14.6538216,4.82056252 14.7664037,4.71542383 C15.7089302,4.73217159 16.2560236,4.74984977 17.1966892,4.74984977 C18.1578243,4.74984977 18.7225959,4.73124116 19.6455834,4.71542383 C19.7590959,4.82056252 19.7590959,5.19552618 19.6455834,5.30252573 C18.3271628,5.35742116 18.0061641,5.44581209 18.0061641,6.92519723 L18.0061641,13.2744577 C18.0926942,13.2670143 18.2015546,13.2074667 18.3383279,13.076276 L23.5152455,6.97730136 C23.7283142,6.72515459 23.9032352,6.40136463 24.0120956,6.11200062 C23.8734614,5.40673399 23.4491849,5.34160383 22.4312935,5.3015953 C22.3177809,5.19459575 22.3177809,4.81777123 22.4312935,4.71263254 C23.37382,4.73124116 23.9199829,4.74891934 24.861579,4.74891934 C25.8217837,4.74891934 26.3874857,4.72938029 27.3104732,4.71263254 C27.4230553,4.81777123 27.4230553,5.19459575 27.3104732,5.3015953 C25.9920526,5.35462986 25.6701235,5.4430208 25.6701235,6.9242668 L25.6701235,14.0755587 C25.6719843,15.5549439 25.992983,15.6461261 27.312334,15.6982302 Z M28.5739983,15.9131598 C28.5739983,15.8219776 28.631685,15.7698734 28.70705,15.7698734 L29.2150652,15.7354475 C30.0068619,15.6786912 30.2329566,15.4842311 30.2329566,14.9864506 L30.2329566,6.01430538 C30.2329566,5.48023804 29.9501056,5.32020392 29.2150652,5.2653085 L28.7256586,5.23088255 C28.6502937,5.23088255 28.5749288,5.17598713 28.5749288,5.08759619 L28.5749288,4.74984977 L28.6130764,4.71542383 C29.5565334,4.73217159 30.1203745,4.74984977 31.0619706,4.74984977 C32.0054275,4.74984977 32.5515905,4.73124116 33.4745779,4.71542383 L33.5127256,4.74984977 L33.5127256,5.08759619 C33.5127256,5.17877842 33.4550389,5.23088255 33.3619958,5.23088255 L32.8725891,5.2653085 C32.1189401,5.32206478 31.8370195,5.51652484 31.8370195,6.01430538 L31.8370195,9.72300297 C32.5153037,9.72300297 33.3638566,9.70439435 33.8151156,9.4559693 C34.9260501,8.88561515 35.1912229,7.74397643 35.3596309,6.7465545 C35.5485084,5.64120258 36.0769932,4.64191979 37.5638217,4.64191979 C38.5621741,4.64191979 38.9017814,5.15830894 38.9017814,5.56862897 C38.9017814,6.08687899 38.4672702,6.28319991 38.071837,6.28319991 C37.8271337,6.28319991 37.5628913,6.19387854 37.3740138,6.01430538 C37.1665277,5.81798445 37.0157979,5.72866309 36.772025,5.72866309 C36.2072535,5.72866309 36.0769932,6.31762585 35.9802283,6.834015 C35.7727423,7.94029735 35.3782395,9.47271705 33.945376,9.97235845 L33.945376,10.0635407 C35.2442575,10.0635407 35.9802283,10.8283549 36.4873132,12.078854 C37.4698482,14.4849483 38.4281921,15.6991607 39.0869371,15.7494039 L39.3883968,15.768943 C39.4842311,15.768943 39.5391266,15.8219776 39.5391266,15.9103685 L39.5391266,16.2481149 L39.5205179,16.2844017 L38.0308981,16.2657931 C36.5608172,16.2471845 35.8825331,14.8031557 35.0730582,12.8418074 C34.3361569,11.0572409 33.9807323,10.470139 31.8332978,10.470139 L31.8332978,14.9827289 C31.8332978,15.5149354 32.1170792,15.6749695 32.8688674,15.7317258 L33.3582741,15.7661517 C33.433639,15.7661517 33.5090039,15.8210471 33.5090039,15.9094381 L33.5090039,16.2471845 L33.4708562,16.2816104 C32.5655469,16.2471845 32.019384,16.2471845 31.0787183,16.2471845 C30.1361918,16.2471845 29.5332726,16.2471845 28.6102851,16.2816104 L28.5721375,16.2471845 L28.5739983,15.9131598 L28.5739983,15.9131598 Z M53.2546085,15.6982302 C53.3681211,15.8033689 53.3681211,16.1801935 53.2546085,16.2853321 C52.3130125,16.2685844 51.7659191,16.2509062 50.824323,16.2509062 C49.8631879,16.2509062 49.2984163,16.2695148 48.3754289,16.2853321 C48.2619163,16.1801935 48.2619163,15.8033689 48.3754289,15.6982302 C49.6938495,15.6433348 50.0148481,15.5549439 50.0148481,14.0755587 L50.0148481,7.72629824 C49.8743531,7.77188936 49.7775882,7.85376728 49.6854756,7.95890597 L44.5401927,14.0234546 C44.3196806,14.2886274 44.1326639,14.4319138 44.0014732,14.8561903 C44.1363857,15.5921611 44.55601,15.6572913 45.5878579,15.6991607 C45.7013704,15.8061602 45.7013704,16.1829847 45.5878579,16.2881234 C44.6453314,16.2695148 44.0991684,16.2518366 43.1575724,16.2518366 C42.1973677,16.2518366 41.6316657,16.2713757 40.7086782,16.2881234 C40.5960961,16.1829847 40.5960961,15.8061602 40.7086782,15.6991607 C42.0270988,15.6461261 42.3490279,15.5577352 42.3490279,14.0764892 L42.3490279,6.92519723 C42.3490279,5.44581209 42.0280292,5.35462986 40.7086782,5.30252573 C40.5960961,5.19552618 40.5960961,4.82056252 40.7086782,4.71542383 C41.6521351,4.73217159 42.1982981,4.74984977 43.1389637,4.74984977 C44.1000989,4.74984977 44.6648704,4.73124116 45.5878579,4.71542383 C45.7013704,4.82056252 45.7013704,5.19552618 45.5878579,5.30252573 C44.2694373,5.35742116 43.9484386,5.44581209 43.9484386,6.92519723 L43.9484386,13.2744577 C44.0349687,13.2670143 44.1438291,13.2074667 44.2806025,13.076276 L49.45752,6.97730136 C49.6705887,6.72515459 49.8455097,6.40136463 49.9543701,6.11200062 C49.8148055,5.40673399 49.3914594,5.34160383 48.373568,5.3015953 C48.2600554,5.19459575 48.2600554,4.81777123 48.373568,4.71263254 C49.3160945,4.73124116 49.8622575,4.74891934 50.8038535,4.74891934 C51.7640582,4.74891934 52.3297602,4.72938029 53.2527477,4.71263254 C53.3662602,4.81777123 53.3662602,5.19459575 53.2527477,5.3015953 C51.9343271,5.35462986 51.6142589,5.4430208 51.6142589,6.9242668 L51.6142589,14.0755587 C51.6161197,15.5549439 51.9361879,15.6461261 53.2546085,15.6982302 Z M66.6128051,4.7144934 C66.7253872,4.81963209 66.7253872,5.19459575 66.6128051,5.3015953 C65.293454,5.35649072 64.9733858,5.44488166 64.9733858,6.9242668 L64.9733858,14.0755587 C64.9733858,15.5568047 65.293454,15.6461261 66.6128051,15.6982302 C66.7253872,15.8052298 66.7253872,16.1820543 66.6128051,16.287193 C65.6898176,16.2685844 65.1241156,16.2509062 64.1629805,16.2509062 C63.220454,16.2509062 62.674291,16.2704452 61.7336254,16.287193 C61.6210432,16.1820543 61.6210432,15.8052298 61.7336254,15.6982302 C63.0529764,15.6451957 63.3730446,15.5568047 63.3730446,14.0755587 L63.3730446,6.7828413 C63.3730446,5.67748939 62.9590029,5.46349028 62.505883,5.46349028 L58.7953246,5.46349028 C58.3431352,5.46349028 57.9272325,5.67655896 57.9272325,6.7828413 L57.9272325,14.0755587 C57.9272325,15.5568047 58.2482312,15.6461261 59.5675822,15.6982302 C59.6810948,15.8052298 59.6810948,16.1820543 59.5675822,16.287193 C58.6250557,16.2685844 58.0779624,16.2509062 57.1372967,16.2509062 C56.1761616,16.2509062 55.61139,16.2704452 54.6884026,16.287193 C54.57489,16.1820543 54.57489,15.8052298 54.6884026,15.6982302 C56.0068232,15.6451957 56.3268914,15.5568047 56.3268914,14.0755587 L56.3268914,6.9242668 C56.3268914,5.44488166 56.0068232,5.35369943 54.6884026,5.3015953 C54.57489,5.19459575 54.57489,4.81963209 54.6884026,4.7144934 C55.6299986,4.73124116 56.6851073,4.74891934 57.1186881,4.74891934 L64.18345,4.74891934 C64.6905348,4.74984977 65.671209,4.73124116 66.6128051,4.7144934 Z M74.8089709,8.59997286 C74.921553,8.49297331 75.3179166,8.49297331 75.4304987,8.59997286 C75.4109597,9.13590106 75.3923511,9.52668204 75.3923511,10.133323 C75.3923511,10.7381031 75.4118901,11.0786408 75.4304987,11.7038904 C75.3179166,11.8090291 74.921553,11.8090291 74.8089709,11.7038904 C74.7512842,10.9009285 74.6945279,10.489678 73.0932563,10.489678 L71.3784722,10.489678 L71.3784722,14.7873384 C71.3784722,15.2693016 71.6417841,15.5540135 72.0567563,15.5540135 L74.619163,15.5540135 C76.0492353,15.5540135 76.7089108,14.5016961 77.0866658,13.216771 C77.33323,13.1600147 77.5500204,13.1981624 77.7444804,13.3060924 C77.5956115,14.2169842 77.31183,15.3921185 77.0485181,16.2844017 C77.0485181,16.2844017 75.5402896,16.2481149 74.6359108,16.2481149 L70.5848146,16.2481149 C70.5848146,16.2481149 69.0598383,16.267654 68.1368509,16.2844017 C68.0224079,16.1774022 68.0224079,15.8024385 68.1368509,15.695439 C69.454341,15.6424044 69.7762701,15.5540135 69.7762701,14.0727675 L69.7762701,6.92147551 C69.7762701,5.44022951 69.454341,5.35090814 68.1368509,5.29880401 C68.0224079,5.19180445 68.0224079,4.8168408 68.1368509,4.71170211 C69.0793774,4.72844986 70.566206,4.74612805 70.566206,4.74612805 L75.3700207,4.74612805 C75.8222102,4.74612805 75.9720095,4.72751943 76.2930082,4.6754153 C76.3506949,4.6754153 76.3683731,4.69402392 76.3683731,4.72844986 C76.4055903,4.87173622 76.6884413,6.58372909 76.7824149,7.31411735 C76.5981895,7.39785613 76.3934947,7.4360038 76.160887,7.40343872 C75.7468453,6.17340906 75.4435248,5.46069899 74.0311307,5.46069899 L72.053965,5.46069899 C71.6017756,5.46069899 71.3756809,5.81705402 71.3756809,6.24412181 L71.3756809,9.8113939 L73.090465,9.8113939 C74.6945279,9.81232433 74.7522146,9.58157747 74.8089709,8.59997286 Z M82.4012871,10.8823199 C82.8153288,8.84839791 83.0414236,7.01358817 83.0414236,5.89055806 C83.0414236,5.51652484 82.8711547,5.33043866 82.381748,5.28391711 L81.8179069,5.23088255 C81.7220725,5.23088255 81.6671771,5.19459575 81.6671771,5.123883 L81.6671771,4.74984977 L81.7034639,4.71542383 C81.7034639,4.71542383 83.0228149,4.74984977 83.5875865,4.74984977 L88.5049138,4.74984977 C89.0696854,4.74984977 90.5583748,4.71542383 90.5583748,4.71542383 L90.5955921,4.74984977 L90.5955921,5.08759619 C90.5955921,5.19459575 90.5202272,5.22529997 90.4448623,5.23088255 L89.8986993,5.2653085 C89.2920584,5.30531702 89.2018066,5.53234217 89.2018066,6.17620035 L89.2018066,14.8589816 C89.2018066,15.5186571 89.6251526,15.714978 89.9554556,15.7698734 C90.3639148,15.8368644 90.5099924,15.8954816 90.5202272,16.1094807 L90.6532788,18.7481828 C90.1434027,18.7481828 90.1434027,18.7667914 90.1434027,18.7667914 C89.9191688,17.7675086 89.2390238,16.2518366 87.7317258,16.2518366 L82.2691659,16.2518366 C80.7051116,16.2518366 80.2147745,17.8400822 80.0072884,18.7667914 L79.4983427,18.7481828 L79.6313943,16.1094807 C79.6425595,15.8954816 79.8407412,15.7968559 80.0277579,15.7698734 C80.3952781,15.714978 80.6967377,15.6721782 80.9693539,15.4135184 C81.4615519,14.9483029 81.7992983,13.6652387 82.4012871,10.8823199 Z M84.5877997,5.46162942 C84.078854,5.46162942 83.890907,5.71284576 83.8527593,6.15759173 C83.7001686,7.95890597 83.4015003,9.81232433 83.1744752,11.0256062 C82.7613639,13.1097715 82.2896354,14.8766598 82.2896354,15.250693 C82.2896354,15.4637617 82.5352691,15.5540135 82.7985811,15.5540135 L86.9250422,15.5540135 C87.3772316,15.5540135 87.6033263,15.499118 87.6033263,14.8394425 L87.6033263,6.15480044 C87.6033263,5.60212448 87.4907442,5.46069899 86.9055031,5.46069899 L84.5877997,5.46069899 L84.5877997,5.46162942 Z M105.009828,15.6982302 C105.12241,15.8033689 105.12241,16.1801935 105.009828,16.2853321 C104.068232,16.2685844 103.521138,16.2509062 102.580473,16.2509062 C101.620268,16.2509062 101.053635,16.2695148 100.131578,16.2853321 C100.018066,16.1801935 100.018066,15.8033689 100.131578,15.6982302 C101.449999,15.6433348 101.770067,15.5549439 101.770067,14.0755587 L101.770067,7.72629824 C101.630503,7.77188936 101.532807,7.85376728 101.440695,7.95890597 L96.2954118,14.0234546 C96.0748997,14.2886274 95.8878831,14.4319138 95.7566923,14.8561903 C95.8916048,15.5921611 96.3112291,15.6572913 97.343077,15.6991607 C97.4556592,15.8061602 97.4556592,16.1829847 97.343077,16.2881234 C96.3996201,16.2695148 95.8543876,16.2518366 94.9127915,16.2518366 C93.9525868,16.2518366 93.3868848,16.2713757 92.4638973,16.2881234 C92.3503848,16.1829847 92.3503848,15.8061602 92.4638973,15.6991607 C93.7823179,15.6461261 94.1033166,15.5577352 94.1033166,14.0764892 L94.1033166,6.92519723 C94.1033166,5.44581209 93.7823179,5.35462986 92.4638973,5.30252573 C92.3503848,5.19552618 92.3503848,4.82056252 92.4638973,4.71542383 C93.4054934,4.73217159 93.9525868,4.74984977 94.8932524,4.74984977 C95.8543876,4.74984977 96.4200896,4.73124116 97.343077,4.71542383 C97.4556592,4.82056252 97.4556592,5.19552618 97.343077,5.30252573 C96.023726,5.35742116 95.7036578,5.44581209 95.7036578,6.92519723 L95.7036578,13.2744577 C95.7901878,13.2670143 95.8999787,13.2074667 96.0358216,13.076276 L101.212739,6.97730136 C101.425808,6.72515459 101.600729,6.40136463 101.708659,6.11200062 C101.570955,5.40673399 101.146679,5.34160383 100.129718,5.3015953 C100.016205,5.19459575 100.016205,4.81777123 100.129718,4.71263254 C101.071314,4.73124116 101.618407,4.74891934 102.559073,4.74891934 C103.520208,4.74891934 104.08591,4.72938029 105.008897,4.71263254 C105.121479,4.81777123 105.121479,5.19459575 105.008897,5.3015953 C103.689546,5.35462986 103.369478,5.4430208 103.369478,6.9242668 L103.369478,14.0755587 C103.372269,15.5549439 103.690477,15.6461261 105.009828,15.6982302 Z M106.010971,15.7726647 C106.010971,15.6470565 106.085406,15.5726221 106.185892,15.5726221 L106.411987,15.5475004 C107.214018,15.4479443 108.460796,14.0811413 109.752234,10.7241466 C110.380275,9.09217081 111.132063,8.46319952 111.812208,8.0621838 L111.812208,7.98774933 C110.103937,7.73653298 108.070945,6.48138169 108.070945,3.91897498 C108.070945,2.18744306 108.925081,0.0260520654 113.595844,0.0260520654 C114.474171,0.0260520654 115.956347,0.049312838 116.785361,0.049312838 C117.565062,0.049312838 120,0.0260520654 120,0.0260520654 L120,0.552675958 C120,0.652232065 119.949757,0.727596968 119.825079,0.727596968 L119.0705,0.778770668 C118.015391,0.853205141 117.739053,1.03091744 117.739053,1.88412258 L117.739053,14.4160965 C117.739053,15.1706759 118.065634,15.4460835 119.094691,15.5214484 L119.772975,15.5744829 C119.871601,15.5744829 119.973018,15.6489174 119.973018,15.7745256 L119.973018,16.2527671 L119.923705,16.3039408 C119.923705,16.3039408 117.737192,16.2527671 116.759309,16.2527671 C115.85493,16.2527671 113.519549,16.3039408 113.519549,16.3039408 L113.469305,16.2527671 L113.469305,15.7745256 C113.469305,15.6489174 113.54467,15.5744829 113.670279,15.5744829 L114.323441,15.5214484 C115.37855,15.4414313 115.704201,15.1195022 115.704201,14.4160965 L115.704201,8.11242707 C113.042238,8.11242707 112.539805,8.84095447 111.484696,11.5047782 C110.405396,14.2290798 109.475896,16.2481149 107.69319,16.2769583 L106.035163,16.300219 L106.011902,16.2490453 L106.011902,15.7726647 L106.010971,15.7726647 Z M113.745643,7.15873539 L115.704201,7.15873539 L115.704201,1.80875768 C115.704201,0.977882882 115.603714,0.90344841 113.418132,0.90344841 C112.01132,0.90344841 110.103006,1.30725542 110.103006,3.6398457 C110.103937,6.30459982 111.660548,7.15873539 113.745643,7.15873539 Z" id="tt-wordmark" fill="#000000" fill-rule="nonzero"></path>
    </g>
</svg>

<svg xmlns="http://www.w3.org/2000/svg" width="120" height="19"><path fill="#000" fill-rule="nonzero" d="M6.491 0c4.672 0 5.4 2.187 5.4 3.868 0 1.365-1.127 2.653-2.385 3.29v.05c2.186.629 3.868 2.01 3.868 4.421 0 2.16-1.332 4.672-6.33 4.672-2.235 0-2.586-.051-3.666-.051-1.28 0-2.034.025-3.265.051-.15-.15-.15-.68 0-.83 1.76-.075 2.186-.2 2.186-2.285V3.116C2.299 1.03 1.872.905.113.83-.037.68-.037.15.113 0c1.257.025 1.984.051 3.24.051 1.08.001 2.259-.05 3.138-.05ZM4.432 7.06h1.86c2.082 0 3.565-.755 3.565-2.889 0-2.562-1.834-3.316-3.24-3.316-2.185 0-2.185.252-2.185 1.081V7.06Zm0 6.728c0 .83.327 1.683 2.084 1.683 3.819 0 4.52-1.53 4.52-3.365 0-2.26-1.432-4.195-4.871-4.195H4.432v5.877Zm22.88 1.91c.113.105.113.482 0 .587-.943-.016-1.49-.034-2.43-.034-.961 0-1.526.019-2.449.034-.113-.105-.113-.482 0-.587 1.319-.055 1.64-.143 1.64-1.622v-6.35a.722.722 0 0 0-.33.233l-5.145 6.064c-.22.266-.409.409-.539.833.135.736.554.801 1.587.843.113.107.113.484 0 .59-.943-.02-1.49-.037-2.43-.037-.96 0-1.527.02-2.45.036-.112-.105-.112-.482 0-.589 1.319-.053 1.64-.141 1.64-1.623v-7.15c0-1.48-.32-1.571-1.64-1.623-.112-.107-.112-.482 0-.588.943.017 1.49.035 2.43.035.962 0 1.527-.019 2.45-.035.113.106.113.48 0 .588-1.319.054-1.64.143-1.64 1.622v6.35c.087-.008.196-.068.332-.199l5.177-6.099c.213-.252.388-.576.497-.865-.139-.705-.563-.77-1.58-.81-.114-.107-.114-.484 0-.59.942.02 1.488.037 2.43.037.96 0 1.525-.02 2.448-.036.113.105.113.482 0 .589-1.318.053-1.64.141-1.64 1.622v7.152c.002 1.479.323 1.57 1.642 1.622Zm1.262.215c0-.091.058-.143.133-.143l.508-.035c.792-.056 1.018-.25 1.018-.749V6.014c0-.534-.283-.694-1.018-.749l-.49-.034c-.075 0-.15-.055-.15-.143V4.75l.038-.035c.944.017 1.507.035 2.449.035.943 0 1.49-.019 2.413-.035l.038.035v.338c0 .09-.058.143-.151.143l-.49.034c-.753.057-1.035.252-1.035.75v3.708c.678 0 1.527-.019 1.978-.267 1.111-.57 1.376-1.712 1.545-2.71.189-1.105.717-2.104 2.204-2.104.998 0 1.338.516 1.338.927 0 .518-.435.714-.83.714-.245 0-.51-.09-.698-.269-.207-.196-.358-.285-.602-.285-.565 0-.695.589-.792 1.105-.207 1.106-.602 2.639-2.035 3.138v.092c1.3 0 2.035.764 2.542 2.015.983 2.406 1.941 3.62 2.6 3.67l.301.02c.096 0 .151.053.151.141v.338l-.018.036-1.49-.018c-1.47-.019-2.148-1.463-2.958-3.424-.737-1.785-1.092-2.372-3.24-2.372v4.513c0 .532.284.692 1.036.749l.49.034c.075 0 .15.055.15.143v.338l-.038.035c-.905-.035-1.452-.035-2.392-.035-.943 0-1.546 0-2.469.035l-.038-.035.002-.334Zm24.68-.215c.114.105.114.482 0 .587-.941-.016-1.488-.034-2.43-.034-.96 0-1.526.019-2.449.034-.113-.105-.113-.482 0-.587 1.319-.055 1.64-.143 1.64-1.622v-6.35a.722.722 0 0 0-.33.233l-5.145 6.064c-.22.266-.407.409-.539.833.135.736.555.801 1.587.843.113.107.113.484 0 .59-.943-.02-1.489-.037-2.43-.037-.96 0-1.526.02-2.45.036-.112-.105-.112-.482 0-.589 1.32-.053 1.641-.141 1.641-1.623v-7.15c0-1.48-.321-1.571-1.64-1.623-.113-.107-.113-.482 0-.588.943.017 1.49.035 2.43.035.961 0 1.526-.019 2.449-.035.113.106.113.48 0 .588-1.319.054-1.64.143-1.64 1.622v6.35c.087-.008.196-.068.333-.199l5.177-6.099c.213-.252.388-.576.496-.865-.14-.705-.563-.77-1.58-.81-.114-.107-.114-.484 0-.59.942.02 1.488.037 2.43.037.96 0 1.526-.02 2.449-.036.113.105.113.482 0 .589-1.319.053-1.639.141-1.639 1.622v7.152c.002 1.479.322 1.57 1.64 1.622ZM66.614 4.714c.112.106.112.48 0 .588-1.32.054-1.64.143-1.64 1.622v7.152c0 1.48.32 1.57 1.64 1.622.112.107.112.484 0 .59-.923-.02-1.489-.037-2.45-.037-.943 0-1.489.02-2.43.036-.112-.105-.112-.482 0-.589 1.32-.053 1.64-.141 1.64-1.622V6.783c0-1.106-.414-1.32-.867-1.32h-3.71c-.453 0-.869.214-.869 1.32v7.293c0 1.48.321 1.57 1.64 1.622.114.107.114.484 0 .59-.942-.02-1.489-.037-2.43-.037-.96 0-1.526.02-2.449.036-.113-.105-.113-.482 0-.589 1.319-.053 1.639-.141 1.639-1.622V6.924c0-1.48-.32-1.57-1.639-1.622-.113-.107-.113-.482 0-.588.942.017 1.997.035 2.43.035h7.065c.508 0 1.488-.018 2.43-.035ZM74.809 8.6c.113-.107.509-.107.621 0-.019.536-.038.927-.038 1.533 0 .605.02.946.038 1.57-.112.106-.508.106-.621 0-.058-.802-.114-1.213-1.716-1.213h-1.715v4.297c0 .482.264.767.679.767h2.562c1.43 0 2.09-1.052 2.468-2.337a.894.894 0 0 1 .657.09c-.148.91-.432 2.085-.695 2.977 0 0-1.509-.036-2.413-.036h-4.051s-1.525.02-2.448.036c-.115-.107-.115-.482 0-.589 1.317-.053 1.64-.141 1.64-1.622V6.92c0-1.48-.323-1.57-1.64-1.622-.115-.107-.115-.482 0-.587.942.016 2.43.034 2.43.034h4.803c.452 0 .602-.018.923-.07.058 0 .075.018.075.052.038.144.32 1.856.414 2.586a1.099 1.099 0 0 1-.621.09c-.414-1.23-.717-1.943-2.13-1.943h-1.977c-.452 0-.678.356-.678.783v3.567h1.714c1.605.001 1.662-.23 1.719-1.211Zm7.592 2.282c.414-2.034.64-3.868.64-4.991 0-.374-.17-.56-.66-.607l-.563-.053c-.096 0-.15-.036-.15-.107V4.75l.035-.035s1.32.035 1.885.035h4.917c.565 0 2.053-.035 2.053-.035l.038.035v.338c0 .107-.076.137-.151.143l-.546.034c-.607.04-.697.267-.697.911v8.683c0 .66.423.856.753.91.409.068.555.126.565.34l.133 2.64c-.51 0-.51.018-.51.018-.224-1-.904-2.515-2.411-2.515h-5.463c-1.564 0-2.054 1.588-2.262 2.515l-.509-.019.133-2.639c.012-.214.21-.312.397-.34.367-.054.669-.097.941-.355.493-.466.83-1.749 1.432-4.532Zm2.187-5.42c-.51 0-.697.25-.735.696a51.628 51.628 0 0 1-.679 4.868c-.413 2.084-.884 3.85-.884 4.225 0 .213.245.303.509.303h4.126c.452 0 .678-.055.678-.715V6.155c0-.553-.112-.694-.697-.694h-2.318Zm20.422 10.236c.112.105.112.482 0 .587-.942-.016-1.489-.034-2.43-.034-.96 0-1.526.019-2.448.034-.114-.105-.114-.482 0-.587 1.318-.055 1.638-.143 1.638-1.622v-6.35a.727.727 0 0 0-.33.233l-5.145 6.064c-.22.266-.407.409-.538.833.135.736.554.801 1.586.843.113.107.113.484 0 .59-.943-.02-1.489-.037-2.43-.037-.96 0-1.526.02-2.45.036-.113-.105-.113-.482 0-.589 1.32-.053 1.64-.141 1.64-1.623v-7.15c0-1.48-.32-1.571-1.64-1.623-.113-.107-.113-.482 0-.588.942.017 1.49.035 2.43.035.961 0 1.527-.019 2.45-.035.113.106.113.48 0 .588-1.32.054-1.64.143-1.64 1.622v6.35c.087-.008.197-.068.333-.199l5.177-6.099c.213-.252.388-.576.496-.865-.138-.705-.562-.77-1.58-.81-.113-.107-.113-.484 0-.59.942.02 1.49.037 2.43.037.961 0 1.527-.02 2.45-.036.112.105.112.482 0 .589-1.32.053-1.64.141-1.64 1.622v7.152c.003 1.479.321 1.57 1.64 1.622Zm1.001.075c0-.126.074-.2.175-.2l.226-.025c.802-.1 2.049-1.467 3.34-4.824.628-1.632 1.38-2.26 2.06-2.662v-.074c-1.708-.251-3.741-1.507-3.741-4.069 0-1.732.854-3.893 5.525-3.893.878 0 2.36.023 3.19.023.78 0 3.214-.023 3.214-.023v.527c0 .1-.05.175-.175.175l-.755.05c-1.055.075-1.33.253-1.33 1.106v12.532c0 .755.326 1.03 1.355 1.105l.678.053c.099 0 .2.075.2.2v.479l-.05.05s-2.186-.05-3.164-.05c-.904 0-3.24.05-3.24.05l-.05-.05v-.478c0-.126.076-.2.201-.2l.653-.054c1.056-.08 1.381-.401 1.381-1.105V8.112c-2.662 0-3.164.729-4.22 3.393-1.079 2.724-2.008 4.743-3.79 4.772l-1.659.023-.023-.051v-.476h-.001Zm7.735-8.614h1.958v-5.35c0-.831-.1-.906-2.286-.906-1.407 0-3.315.404-3.315 2.737 0 2.665 1.558 3.519 3.643 3.519Z"/></svg>
